X:1
T:Filli sento vicine
T:Giovanni Antonio Rigatti
T:Source : Musiche diverse a voce sola---Venetia---B.Magni---1641. Editor : André Vierendeels (28/12/16).
T:Filli sento vicine
T:©
T:©
T:©
T:©
C:Giovanni Antonio Rigatti
Z:©
%%score 1 2
L:1/8
Q:1/4=120
M:4/4
K:F
V:1 treble nm="Soprano" snm="S"
V:2 bass nm="MusicXML Part"
V:1
 c6 B/A/G | G2 FG _E2 C2 | z2 _A4 GG | G3 F G4 | z2 =B2 B2 B2 | z =BBd G2 G2 | z2 GA B4- | B4 _A4 | %8
w: Fil- li _ _|sen- to vi- ci- ne|l'ho- re del|mio mo- rir|è giun- to|al suo con- fi- ne|il mio lun-|* gho,|
w: Pren- di _ _|gl'ul- ti- mi ba- c'in|se- gno del|mio A- mor|in se- gno,|se- gno del mio'A- mor|cru- del, cru-|* del|
w: Sen- to _ _|l'al- ma che fug- ge|ne go le|tor- ne- ra|ne go- le,|go- le tor- ne- ra|il cor las-|* so,|
 z2 cd _e4- | e4 _d4 | z2 cB c4- | c4 c3 =B | c8 ::[M:6/4] z2 z2 c2 d3 d d2 | z2 z2 G2 A3 A A2 | %15
w: il mio lun-|* gho,|il mio lun-|* gho mar-|tir,|a- giu- ta- mi,|soc- co- ri mi|
w: dru- del, cru-|* del|cru- del eu|_ ra- *|ci,|ne mi- r'il mio|il mio do- lor|
w: il cor las-|* so,|las- so si|_ strug- *|ge,|lo spir- to se|se- * ne- va|
 z2 A4- A4 d2 | c2 c2 B2 B4 g2 | f2 f2 _e2 e6 | d2 _e2 f2 e4 d2 | d6 c2 c2 c2 | c4 B2 B4 _A2 | %21
w: ma _ che|va- na pie- ta, che|va- na pie- ta|se co- gl'a- iu- ti|suoi pri- ma del|mio lan- guir, del|
w: ||||||
w: ||||||
 _A4 G2 G4 c2 | ^F4 d2 G6- | G4 ^F2 G6 | z2 D4- D4 G2 | F2 F2 _E2 E4 c2 | B2 B2 B2 _A4 f2 | %27
w: mio lan- guir, mo-|rir, mo- rir|_ mi fa,|ma _ che|va- na pie- ta, che|va- na pie- ta, che|
w: ||||||
w: ||||||
 _e2 e2 _d2 d6 | c2 _d2 _e2 =B4 B2 | c4 z2 z6 | c2 G2 G2 _A4 B2 | E4 F2 F4 E2 | F4 z2 z6 | %33
w: va- na pie- ta|se co gl'a- iu- ti|suoi,|pri- ma del mio lan-|guir, mo- rir mi|fa,|
w: ||||||
w: ||||||
 f2 c2 c2 _d4 _e2 | A4 f2 =B4 _e2 | c4 f2 _e2 d2 e2 | c12 :| %37
w: pri- ma del mio lan-|guir mo- rir, mo-|rir, mo- rir mi- *|fa.|
w: ||||
w: ||||
V:2
"^b" C,8 | =B,,4 C,4 | C,4 B,,4 | _A,,4 G,,4 |"^-natural" G,,8- | G,,4 =B,,4 |"^b" C,4 G,,3 A,, | %7
 B,,C,D,E, F,4- | F,4 C,3 D, | _E,F,G,A, B,4 | z4 z2 _G,F, | _A,2 G,F, G,2 G,,2 | C,8 :: %13
[M:6/4] C,6 =B,,6 | _E,6 D,6 | D,4 E,2 ^F,6 | ^F,6 G,6 | A,2 B,4 C2 G,2 A,2 | %18
 B,4 D,2 _E,2 G,2 A,2 | B,2 D,2 E,2 ^F,2 G,2 A,2 |"^(b)" G,2 ^F,4 G,2 D,2 E,2 | F,2 C,2 D,2 _E,6 | %22
 D,6 =B,,2 C,4 | D,6 G,,2 G,,2 A,,2 | =B,,4 A,,2 G,,6 |"^b" A,,4 =B,,2 C,6 |"^b" D,4 E,2 F,6 | %27
 A,,6 B,2 _A,2 G,2 | _A,4 F,2 G,6 | C2 G,2 G,2 _A,4 B,2 | E,6 F,6 | C,2 B,,4 =B,,2 C,4 | %32
 F,2 C,2 C,2 _D,4 _E,2 |"^b" A,,6 B,,6 | F,6 G,6 | _A,2 F,4 G,6 | C,12 :| %37

